Icons/Dark/WaterSourceChangeRadius.svg

<svg xmlns="http://www.w3.org/2000/svg" xml:space="preserve" fill-rule="evenodd" stroke-linejoin="round" stroke-miterlimit="2" clip-rule="evenodd" viewBox="0 0 64 64">
  <g id="grey">
    <path fill="#010001" fill-rule="nonzero" d="M30.567 14.968c16.301-1.073 30.156 6.635 30.948 17.225.793 10.59-11.784 20.036-28.083 21.108-16.3 1.071-30.156-6.638-30.947-17.224-.791-10.586 11.781-20.034 28.082-21.109Z"/>
    <path fill="#575757" fill-rule="nonzero" d="M30.567 10.699c16.301-1.073 30.156 6.635 30.948 17.225.793 10.591-11.784 20.036-28.083 21.108-16.3 1.072-30.156-6.638-30.947-17.224-.791-10.585 11.781-20.034 28.082-21.109Z"/>
    <path fill="#575757" fill-rule="nonzero" d="M30.811 14.848c13.8-.909 25.473 5.028 26.089 13.264.616 8.236-10.067 15.643-23.86 16.551-13.792.909-25.473-5.031-26.089-13.264-.615-8.233 10.067-15.643 23.86-16.551Z"/>
    <path fill="#575757" fill-rule="nonzero" d="M30.706 12.624c14.973-1.03 27.638 5.697 28.306 15.031.669 9.333-10.922 17.727-25.888 18.756C18.16 47.441 5.487 40.709 4.818 31.38c-.667-9.33 10.923-17.727 25.888-18.756Z"/>
    <path fill="#2c2e2e" d="M30.567 10.699c16.301-1.073 30.156 6.635 30.948 17.225.793 10.591-11.784 20.036-28.083 21.108-16.3 1.072-30.156-6.638-30.947-17.224-.791-10.585 11.781-20.034 28.082-21.109Zm.164 2.495c-9.086.599-16.955 3.924-21.613 8.671-2.799 2.853-4.405 6.212-4.14 9.757.266 3.557 2.364 6.682 5.572 9.149 5.325 4.096 13.622 6.365 22.718 5.766 9.085-.597 16.955-3.92 21.614-8.667 2.8-2.853 4.406-6.213 4.14-9.759-.266-3.56-2.365-6.685-5.572-9.152-5.326-4.097-13.622-6.364-22.719-5.765Z"/>
  </g>
  <g id="white">
    <path fill="#ebebeb" d="m50.261 33.72-5.071-4.256-5.804 3.351-10.485-8.799 5.803-3.35-4.557-3.824 22.06 1.229-1.946 15.649Zm-16.217 9.363-22.455-1.561 2.341-15.317 4.557 3.824 5.803-3.351 10.486 8.798-5.803 3.351 5.071 4.256Z"/>
  </g>
</svg>

<?xml version="1.0" encoding="UTF-8" standalone="no"?><!DOCTYPE svg PUBLIC "-//W3C//DTD SVG 1.1//EN" "http://www.w3.org/Graphics/SVG/1.1/DTD/svg11.dtd"><svg width="100%" height="100%" viewBox="0 0 64 64" version="1.1" xmlns="http://www.w3.org/2000/svg" xmlns:xlink="http://www.w3.org/1999/xlink" xml:space="preserve" xmlns:serif="http://www.serif.com/" style="fill-rule:evenodd;clip-rule:evenodd;stroke-linejoin:round;stroke-miterlimit:2;"><g id="grey"><path d="M30.567,14.968C46.868,13.895 60.723,21.603 61.515,32.193C62.308,42.783 49.731,52.229 33.432,53.301C17.132,54.372 3.276,46.663 2.485,36.077C1.694,25.491 14.266,16.043 30.567,14.968Z" style="fill:#010001;fill-rule:nonzero;"/><path d="M30.567,10.699C46.868,9.626 60.723,17.334 61.515,27.924C62.308,38.515 49.731,47.96 33.432,49.032C17.132,50.104 3.276,42.394 2.485,31.808C1.694,21.223 14.266,11.774 30.567,10.699Z" style="fill:#575757;fill-rule:nonzero;"/><path d="M30.811,14.848C44.611,13.939 56.284,19.876 56.9,28.112C57.516,36.348 46.833,43.755 33.04,44.663C19.248,45.572 7.567,39.632 6.951,31.399C6.336,23.166 17.018,15.756 30.811,14.848Z" style="fill:#575757;fill-rule:nonzero;"/><path d="M30.706,12.624C45.679,11.594 58.344,18.321 59.012,27.655C59.681,36.988 48.09,45.382 33.124,46.411C18.16,47.441 5.487,40.709 4.818,31.38C4.151,22.05 15.741,13.653 30.706,12.624Z" style="fill:#575757;fill-rule:nonzero;"/><path d="M30.567,10.699C46.868,9.626 60.723,17.334 61.515,27.924C62.308,38.515 49.731,47.96 33.432,49.032C17.132,50.104 3.276,42.394 2.485,31.808C1.694,21.223 14.266,11.774 30.567,10.699ZM30.731,13.194C21.645,13.793 13.776,17.118 9.118,21.865C6.319,24.718 4.713,28.077 4.978,31.622C5.244,35.179 7.342,38.304 10.55,40.771C15.875,44.867 24.172,47.136 33.268,46.537C42.353,45.94 50.223,42.617 54.882,37.87C57.682,35.017 59.288,31.657 59.022,28.111C58.756,24.551 56.657,21.426 53.45,18.959C48.124,14.862 39.828,12.595 30.731,13.194Z" style="fill:#2c2e2e;"/><path d="M50.261,33.72L45.19,29.464L39.386,32.815L28.901,24.016L34.704,20.666L30.147,16.842L52.207,18.071L50.261,33.72ZM34.044,43.083L11.589,41.522L13.93,26.205L18.487,30.029L24.29,26.678L34.776,35.476L28.973,38.827L34.044,43.083Z" style="fill:#d4d4d4;"/></g></svg>
